X: 1244
T:Gan Ainm
M:4/4
L:1/8
R:Reel
D:Session tape - Belfast
Z:Bernie Stocks
K:D
A2dA eAdA | Addc dBGB |1 Adde fage | fage fdcd :|2 Adde faed | cAAB cAA2 ::\
fage fage | fage fdAd | fage fefg | aA~A2 aA~A2|\
fage fage | fage fefg | abag f2ed | cAAB cAA2 :|
